data/suse.svg

<svg width="32.746" height="17.64" viewBox="0 0 32.746 17.64" xmlns="http://www.w3.org/2000/svg"><path transform="translate(0 13.72) scale(.014 -.014)" d="m261-12q-74 0-129.5 26.5t-93.5 72.5l54 54q37-41 79.5-60.5t92.5-19.5q70 0 110.5 35t40.5 91q0 40-19.5 64.5t-52 39.5-71 25.5-77 23-71 32.5-52 52.5-19.5 84.5q0 62 29 107.5t81.5 70.5 122.5 25q63 0 113-20.5t83-57.5l-55-55q-29 30-63.5 45t-77.5 15q-67 0-107.5-33.5t-40.5-88.5q0-38 20-60.5t52-36 71-23.5 78-22.5 71.5-32.5 52.5-54 20-89q0-64-30.5-111.5t-85-73.5-126.5-26z"/><path transform="translate(7.602 13.72) scale(.014 -.014)" d="m342-12q-119 0-190 63.5t-71 185.5v463h85v-457q0-85 48-130.5t128-45.5q81 0 128.5 45.5t47.5 130.5v457h85v-463q0-81-32-137t-90.5-84-138.5-28z"/><path transform="translate(17.192 13.72) scale(.014 -.014)" d="m261-12q-74 0-129.5 26.5t-93.5 72.5l54 54q37-41 79.5-60.5t92.5-19.5q70 0 110.5 35t40.5 91q0 40-19.5 64.5t-52 39.5-71 25.5-77 23-71 32.5-52 52.5-19.5 84.5q0 62 29 107.5t81.5 70.5 122.5 25q63 0 113-20.5t83-57.5l-55-55q-29 30-63.5 45t-77.5 15q-67 0-107.5-33.5t-40.5-88.5q0-38 20-60.5t52-36 71-23.5 78-22.5 71.5-32.5 52.5-54 20-89q0-64-30.5-111.5t-85-73.5-126.5-26z"/><path transform="translate(24.794 13.72) scale(.014 -.014)" d="m192 0q-48 0-79.5 31.5t-31.5 79.5v478q0 48 31.5 79.5t79.5 31.5h323v-78h-296q-23 0-38.5-15.5t-15.5-37.5v-438q0-22 15.5-37.5t38.5-15.5h296v-78zm-68 313v75h370v-75z"/></svg>

<?xml version="1.0" encoding="utf-8" ?>
<svg baseProfile="tiny" height="100%" version="1.2" width="100%" xmlns="http://www.w3.org/2000/svg" xmlns:ev="http://www.w3.org/2001/xml-events" xmlns:xlink="http://www.w3.org/1999/xlink"><defs /><g><path d="M261 -12Q187 -12 131.5 14.5Q76 41 38 87L92 141Q129 100 171.5 80.5Q214 61 264 61Q334 61 374.5 96.0Q415 131 415 187Q415 227 395.5 251.5Q376 276 343.5 291.0Q311 306 272.5 316.5Q234 327 195.5 339.5Q157 352 124.5 372.0Q92 392 72.5 424.5Q53 457 53 509Q53 571 82.0 616.5Q111 662 163.5 687.0Q216 712 286 712Q349 712 399.0 691.5Q449 671 482 634L427 579Q398 609 363.5 624.0Q329 639 286 639Q219 639 178.5 605.5Q138 572 138 517Q138 479 158.0 456.5Q178 434 210.0 420.5Q242 407 281.0 397.0Q320 387 359.0 374.5Q398 362 430.5 342.0Q463 322 483.0 288.0Q503 254 503 199Q503 135 472.5 87.5Q442 40 387.5 14.0Q333 -12 261 -12Z" transform="translate(0.0, 72) scale(0.072, -0.072)" /><path d="M342 -12Q223 -12 152.0 51.5Q81 115 81 237V700H166V243Q166 158 214.0 112.5Q262 67 342 67Q423 67 470.5 112.5Q518 158 518 243V700H603V237Q603 156 571.0 100.0Q539 44 480.5 16.0Q422 -12 342 -12Z" transform="translate(39.096, 72) scale(0.072, -0.072)" /><path d="M261 -12Q187 -12 131.5 14.5Q76 41 38 87L92 141Q129 100 171.5 80.5Q214 61 264 61Q334 61 374.5 96.0Q415 131 415 187Q415 227 395.5 251.5Q376 276 343.5 291.0Q311 306 272.5 316.5Q234 327 195.5 339.5Q157 352 124.5 372.0Q92 392 72.5 424.5Q53 457 53 509Q53 571 82.0 616.5Q111 662 163.5 687.0Q216 712 286 712Q349 712 399.0 691.5Q449 671 482 634L427 579Q398 609 363.5 624.0Q329 639 286 639Q219 639 178.5 605.5Q138 572 138 517Q138 479 158.0 456.5Q178 434 210.0 420.5Q242 407 281.0 397.0Q320 387 359.0 374.5Q398 362 430.5 342.0Q463 322 483.0 288.0Q503 254 503 199Q503 135 472.5 87.5Q442 40 387.5 14.0Q333 -12 261 -12Z" transform="translate(88.416, 72) scale(0.072, -0.072)" /><path d="M192 0Q144 0 112.5 31.5Q81 63 81 111V589Q81 637 112.5 668.5Q144 700 192 700H515V622H219Q196 622 180.5 606.5Q165 591 165 569V131Q165 109 180.5 93.5Q196 78 219 78H515V0ZM124 313V388H494V313Z" transform="translate(127.512, 72) scale(0.072, -0.072)" /></g></svg>
